dist/assets/img/advantages/shield 6b.svg

<svg width="40" height="40" viewBox="0 0 40 40" fill="none" xmlns="http://www.w3.org/2000/svg">
<g clip-path="url(#clip0)">
<path d="M40 6.61914H4.68775V11.307H0V33.3792H35.3122V28.6913H40V6.61914ZM32.9684 16.7757C31.4528 16.3619 30.2572 15.1664 29.8434 13.6507H32.9684V16.7757ZM27.4435 13.6507C27.934 16.4619 30.1571 18.6851 32.9684 19.1756V25.5105C30.1572 26.001 27.934 28.2242 27.4435 31.0354H7.86862C7.37808 28.2243 5.15494 26.0011 2.34376 25.5105V19.1756C5.15494 18.685 7.37808 16.4619 7.86862 13.6507H27.4435ZM5.46869 13.6507C5.05486 15.1664 3.85939 16.3618 2.34376 16.7757V13.6507H5.46869ZM2.34376 27.9105C3.85939 28.3243 5.05486 29.5199 5.46869 31.0355H2.34376V27.9105ZM29.8434 31.0355C30.2572 29.5199 31.4528 28.3243 32.9684 27.9105V31.0355H29.8434ZM37.6562 26.3477H35.3122V11.307H7.03151V8.9629H37.6562V26.3477Z" fill="#051223"/>
<path d="M17.6562 27.3698C20.4284 27.3698 22.6838 25.1145 22.6838 22.3422C22.6838 19.5699 20.4284 17.3145 17.6562 17.3145C14.8839 17.3145 12.6284 19.5699 12.6284 22.3422C12.6284 25.1145 14.8839 27.3698 17.6562 27.3698ZM17.6562 19.6582C19.1361 19.6582 20.3401 20.8623 20.3401 22.3422C20.3401 23.8221 19.1361 25.0261 17.6562 25.0261C16.1762 25.0261 14.9722 23.8221 14.9722 22.3422C14.9722 20.8623 16.1762 19.6582 17.6562 19.6582Z" fill="#051223"/>
<path d="M25.5142 21.1719H29.3492V23.5156H25.5142V21.1719Z" fill="#051223"/>
<path d="M5.96289 21.1719H9.79797V23.5156H5.96289V21.1719Z" fill="#051223"/>
</g>
<defs>
<clipPath id="clip0">
<rect width="40" height="40" fill="white"/>
</clipPath>
</defs>
</svg>

<svg width="40" height="40" fill="none" xmlns="http://www.w3.org/2000/svg"><g clip-path="url(#clip0)" fill="#051223"><path d="M40 6.62H4.688v4.687H0v22.072h35.312v-4.688H40V6.62zm-7.032 10.156a4.47 4.47 0 01-3.125-3.125h3.125v3.125zm-5.525-3.125a6.816 6.816 0 005.525 5.525v6.335a6.816 6.816 0 00-5.525 5.524H7.87a6.816 6.816 0 00-5.525-5.524v-6.335a6.816 6.816 0 005.525-5.525h19.575zm-21.974 0a4.47 4.47 0 01-3.125 3.125V13.65h3.125zM2.344 27.91a4.47 4.47 0 013.125 3.124H2.344V27.91zm27.5 3.124a4.47 4.47 0 013.124-3.125v3.125h-3.125zm7.812-4.687h-2.344v-15.04H7.032V8.963h30.624v17.385z"/><path d="M17.656 27.37a5.033 5.033 0 005.028-5.028 5.033 5.033 0 00-5.028-5.027 5.033 5.033 0 00-5.028 5.027 5.033 5.033 0 005.028 5.028zm0-7.712a2.687 2.687 0 012.684 2.684 2.687 2.687 0 01-2.684 2.684 2.687 2.687 0 01-2.684-2.684 2.687 2.687 0 012.684-2.684zm7.858 1.514h3.835v2.344h-3.835v-2.344zm-19.551 0h3.835v2.344H5.963v-2.344z"/></g><defs><clipPath id="clip0"><path fill="#fff" d="M0 0h40v40H0z"/></clipPath></defs></svg>
